X:1
T:Title
%%score { 1 | ( 2 3 ) }
L:1/8
M:6/8
K:Bb
V:1 treble nm="Grand Piano"
V:2 treble 
V:3 treble 
V:1
 z3 z2[Q:1/4=100] F | d2 _d =d2 _d | c B2- B2 [B,DF] | G2 G F2 d | c3- c2 e | d2 c B2 B | %6
 A G2- G2 F/F/ | F2 F FGA | [DB]3- [DB]2 [Fc]/c/ | c2 c cde | [Fd]3 [DB]2 F/F/ | %11
 B2 B [CFA]2 [C=EG] | [CFA]3- [CFA]2 e | d2 c Bcd | f e2- e2 G/G/ | F=EF d2 c |[M:5/8] B-B- B3 | %17
[M:1/8] [Fd]/[Ec]/ |[M:3/4] [DB]2 [DB] [DB]2 [GB] | [^FA][FA]- [FA]3 [FA] | B2 Bc de | %21
[M:5/8] [Fd]-[Fd]- [Fd]3 |[M:1/8] [Ec] |[M:3/4] [DB]2 [FA] [DG]2 [DF] | GG- G3 G | F2 FF G[CEA] | %26
[M:5/8] [B,DB]-[B,DB]- [B,DB]3 |] %27
V:2
 z3 z2 D | F2 =E F2 E | E D2- D2[K:bass] B,, | [E,B,E]2 [E,B,E] [F,B,D]2 [F,B,F] | %4
 [F,A,F]3- [F,A,F]2 F | F2 E D2 D | F E2- E2[K:bass] E/E/ | [F,B,D]2 [F,B,D] [F,E]-[F,B,E][F,CE] | %8
 [B,,B,]3- [B,,B,]2 z/[K:treble] F/ | [F,A,F]2 [F,A,F] [F,F]-[F,B,F][K:bass][F,CF] | %10
 [B,,B,]3 [B,,B,]2 D/D/ | D2 D C,2 C, | F,3- F,2[K:treble] F | F2 E DEF | _A G2- G2 E/E/ | %15
 D_D=D F2 E |[M:5/8] D-D- D3 |[M:1/8][K:bass] [B,,B,] |[M:3/4] [B,,B,]2 [B,,B,] [G,B,]2 [G,D] | %19
 [D,D][D,D]- [D,D]3 [D,D] | [G,DG]2 [G,B,=E][F,F]- [F,B,F][F,CF] | %21
[M:5/8][K:bass] [B,,B,]-[B,,B,]- [B,,B,]3 |[M:1/8] [B,,B,] | %23
[M:3/4] [B,,B,]2 [B,,B,] [B,,B,]2 [B,,B,] | [E,B,E][E,B,E]- [E,B,E]3 [E,B,E] | %25
 [F,B,D]2 [F,B,D][F,E]- [F,B,E]F, |[M:5/8] B,,-B,,- B,,3 |] %27
V:3
 x6 | x6 | x5[K:bass] x | x6 | x6 | x6 | z3 z2[K:bass] [F,A,] | z3 .A,3 | z3 z2 [F,A,][K:treble] | %9
 z3 .A,3[K:bass] | x6 | x6 | x5[K:treble] x | x6 | x6 | x6 |[M:5/8] x5 |[M:1/8][K:bass] x | %18
[M:3/4] x6 | x6 | z2 z A, z2 |[M:5/8][K:bass] x5 |[M:1/8] x |[M:3/4] x6 | x6 | z2 z A, z2 | %26
[M:5/8] x5 |] %27

